X:1
T:I Ain't Marching Anymore
T:I Ain't Marching Anymore
T:Phil Ochs
T:Phil Ochs
C:Phil Ochs
Z:All Rights Reserved
L:1/4
M:4/4
K:G
V:1 treble-8 nm="Guitar" snm="Guit."
%%MIDI program 24
%%MIDI control 7 100
%%MIDI control 10 64
V:1
 z z d d |:"G" d d d3/2 d/ |"C" c B A- G |"D" A D D2 | D2 D D |"G" d2 d3/2 d/ |"C" c B A G | %7
w: Oh, I|marched * to the|Bat- tle of *|New * Or-|leans at the|end of the|ear- ly Brit- ish|
w: |stole * Cal- i-|for- nia from the|Mex i can|land * *|fought in the|blood y Civ il|
w: |flew the fi- nal|mis- sion in the|Jap- an- ese|skies, * *|set off the|might- y mush- room|
"D" A4 | z2 D D |"G" d d2 d/d/ |"C" c- B A B |"F" c c2 c/c/ |"Em" B- A G G |"Am" e2 e3/2 e/ | %14
w: wars.|* the|young land start- ed|grow * ing, the|young blood start ed|flow- * ing but|I ain't a-|
w: War.|Yes, I|e ven killed my|broth * ers, and|so * man y|oth- * ers, but|I ain't a|
w: roar.|When I|saw the cit- ies|burn- * ing, I|knew that I was|learn- * ing that|I ain't a-|
 e d c B |"D" A4- | A4 | z4 | z2 d d |"G" d3/2 d/ d d |"C" c B A G |"D" A D D D | D2 D D | %23
w: march- ing an- y|more!|||For I|killed my share of|in- juns in a|thou- sand dif- f'rent|fights. I was|
w: march ing an y|more!|||For I|marched * to the|bat- tles of the|Ger- * man *|trench. in a|
w: march- ing an- y|more!|||Now the|la- bor lead- er's|scream- ing when they|closed the mis- sile|plant. * U-|
"G" d d d3/2 d/ |"C" c B G G |"D" A4 | z2 e d | d"G" d d d |"C" c B A B |"F" c c c c | %30
w: there * at the|Lit- tle Big *|Horn.|I heard|man- y men a-|ly- ing, I saw|man- y more a-|
w: war * that was|bound to end all|wars.|Oh, I|must have killed a|mil- lion men and|now they want me|
w: nit- ed Fruit screams|at the Cu- ban|shore.|Call it|peace or call it|trea- son, call it|love or call it|
"Em" B- A G G |"Am" e2 e3/2 e/ | e d c"G" B | A4 | z2 z B ||"C" c c2 c | c3 d |"G" B A2 B/A/ | G4 | %39
w: dy- * ing, but|I ain't a-|march- ing an- y|more!|it's|al- ways the|old to|lead us to the|wars,|
w: back a- gain, but|||||||||
w: rea- * son, but|||||||||
"C" c c2 c |"Em" B2 G2 |"A" A4 | z2 z B |"C" c3/2 c/ c c | c2 c A |"G" B3/2 A/ B A |"Em" G2 z2 | %47
w: al- ways the|young to|fall.|Now|look at all we've|won with a|sa- ber and a|gun.|
w: ||||||||
w: ||||||||
"Am" e e e e | c2 B2 |"D" A4 |1 z2 d d :|2 z2 d d ||"D""^Coda" A4 | z2 z E |"Am" e2 e3/2 e/ | %55
w: Tell me, is it|worth it|all?|For I|For I|more!|No,|I ain't a-|
w: ||||||||
w: ||||||||
 e d c B |"D" A4 |] %57
w: march- ing an- y|more!|
w: |D.S.alCoda|
w: ||

